X:21
T:Canarie
C:Michael Praetorius
M:3/4
L:1/4
K:F
|: F>G A | F>G A | B2 A | G2 F :|
|: c3 | A>B c | B2 A | G2 F :|
|: A>G A | F>G A | B>c A | G2 F |
F>G A | F>G A | B>c A | G2 F |
c>B c | A>B c | B2 A | G2 F |
c>d c | A>B c | B>c A | G2 F :|
|: F>G A | F>G A | F>G A | G3 |
c3 | A3 | F G A | G3 :|
